build/img/header/cart.svg

<svg id='cart' viewBox="0 0 32 32"  xmlns="http://www.w3.org/2000/svg">
<path fill-rule="evenodd" clip-rule="evenodd" d="M10.058 26.6024C11.01 26.6024 11.7847 27.3757 11.7847 28.3277C11.7847 29.2797 11.01 30.0544 10.058 30.0544C9.106 30.0544 8.33267 29.2797 8.33267 28.3277C8.33267 27.3757 9.106 26.6024 10.058 26.6024ZM25.0984 26.6024C26.0517 26.6024 26.8264 27.3757 26.8264 28.3277C26.8264 29.2797 26.0517 30.0544 25.0984 30.0544C24.1464 30.0544 23.3731 29.2797 23.3731 28.3277C23.3731 27.3757 24.1464 26.6024 25.0984 26.6024ZM4.35693 4.01253L7.13027 4.49253C7.57693 4.57119 7.91693 4.94186 7.9556 5.39519L8.26893 9.12986L9.43407 9.13036C9.6242 9.13045 9.81231 9.13053 9.99843 9.13061L12.1375 9.13163C12.308 9.13172 12.4766 9.1318 12.6433 9.13189L15.0052 9.13318C15.1536 9.13327 15.3002 9.13336 15.445 9.13345L17.1001 9.1345C17.2312 9.13459 17.3607 9.13468 17.4885 9.13477L18.9442 9.13584C19.0592 9.13593 19.1725 9.13602 19.2844 9.13611L20.5536 9.1372C20.6535 9.13729 20.7518 9.13738 20.8488 9.13748L21.683 9.13831C21.7715 9.1384 21.8587 9.13849 21.9445 9.13858L22.9105 9.1397C22.9859 9.1398 23.06 9.13989 23.1328 9.13999L23.9485 9.14113C24.0117 9.14122 24.0738 9.14132 24.1347 9.14141L24.6532 9.14228C24.7075 9.14238 24.7607 9.14247 24.8129 9.14257L25.3904 9.14374C25.4346 9.14384 25.4778 9.14394 25.52 9.14403L25.8754 9.14492C25.9122 9.14502 25.9481 9.14512 25.9832 9.14522L26.3642 9.14642C26.3928 9.14652 26.4206 9.14663 26.4476 9.14673L26.6713 9.14764C26.694 9.14774 26.7161 9.14784 26.7375 9.14794L26.9638 9.14918C26.9802 9.14928 26.9961 9.14938 27.0114 9.14949L27.1347 9.15042C27.1469 9.15053 27.1586 9.15063 27.1698 9.15074L27.2586 9.15168C27.2672 9.15179 27.2754 9.1519 27.2831 9.152L27.3436 9.15296C27.3493 9.15307 27.3546 9.15317 27.3597 9.15328L27.3979 9.15425C27.4014 9.15435 27.4047 9.15446 27.4077 9.15457L27.4354 9.15588L27.4401 9.15621C27.4531 9.15742 27.4569 9.15786 27.4569 9.15786C28.1996 9.26586 28.8529 9.65386 29.2983 10.2512C29.7436 10.8472 29.9303 11.5819 29.8236 12.3179L28.5583 21.0619C28.3196 22.7259 26.8743 23.9805 25.1943 23.9805H10.6329C8.87693 23.9805 7.39027 22.6099 7.2476 20.8565L6.02627 6.33119L4.01693 5.98453C3.4716 5.88853 3.1076 5.37253 3.20093 4.82719C3.29693 4.28186 3.8236 3.92719 4.35693 4.01253ZM9.16658 11.1303L8.43693 11.1299L9.24093 20.6925C9.2996 21.4285 9.90093 21.9805 10.6356 21.9805H25.1916C25.8863 21.9805 26.4796 21.4632 26.5783 20.7765L27.8449 12.0312C27.8743 11.8232 27.8223 11.6152 27.6956 11.4472C27.5703 11.2779 27.3863 11.1685 27.1783 11.1392C27.1687 11.1396 27.1456 11.1399 27.1098 11.1402L26.9648 11.141C26.9345 11.1412 26.9011 11.1413 26.8648 11.1414L26.1095 11.1425C26.0457 11.1426 25.9795 11.1426 25.9108 11.1426L24.1348 11.1426C24.0357 11.1425 23.9347 11.1425 23.832 11.1425L21.8052 11.1412C21.6837 11.1411 21.561 11.141 21.437 11.1409L20.2901 11.14C20.1595 11.1399 20.0279 11.1398 19.8954 11.1397L18.6806 11.1386C18.5434 11.1385 18.4055 11.1384 18.2671 11.1383L17.4303 11.1375C17.2899 11.1374 17.1491 11.1372 17.008 11.1371L15.7311 11.1359C15.5887 11.1358 15.4462 11.1356 15.3037 11.1355L14.4496 11.1347C14.3074 11.1346 14.1654 11.1344 14.0237 11.1343L13.1767 11.1335C13.0363 11.1334 12.8962 11.1333 12.7566 11.1332L11.516 11.1321C11.3801 11.132 11.2449 11.1319 11.1106 11.1318L9.54265 11.1306C9.41613 11.1305 9.29074 11.1304 9.16658 11.1303ZM23.0501 14.0583C23.6021 14.0583 24.0501 14.5063 24.0501 15.0583C24.0501 15.6103 23.6021 16.0583 23.0501 16.0583H19.3541C18.8008 16.0583 18.3541 15.6103 18.3541 15.0583C18.3541 14.5063 18.8008 14.0583 19.3541 14.0583H23.0501Z"/>
</svg>

<svg id="cart" viewBox="0 0 32 32" xmlns="http://www.w3.org/2000/svg"><path fill-rule="evenodd" clip-rule="evenodd" d="M10.058 26.602c.952 0 1.727.774 1.727 1.726s-.775 1.726-1.727 1.726a1.726 1.726 0 010-3.452zm15.04 0c.954 0 1.728.774 1.728 1.726a1.728 1.728 0 01-3.453 0c0-.952.773-1.726 1.725-1.726zM4.357 4.012l2.773.48c.447.08.787.45.826.903l.313 3.735h1.729l2.14.002h.505l2.362.001h.44l1.655.002h1.844l.34.001 1.27.001h.295l.834.001h.262l.965.002h.223l.816.001h.186l.518.001h.16l.577.002h.485l.108.001.381.001h.084l.223.002h.067l.226.001h.047l.124.001h.035l.089.002h.024l.06.001h.017l.038.001h.01l.027.002h.005a2.777 2.777 0 011.858 1.095c.446.596.632 1.33.526 2.067l-1.266 8.744a3.416 3.416 0 01-3.364 2.918H10.633a3.415 3.415 0 01-3.385-3.123L6.026 6.33l-2.01-.346a1.002 1.002 0 01-.815-1.158c.096-.545.623-.9 1.156-.814zm4.81 7.118h-.73l.804 9.562a1.39 1.39 0 001.395 1.288h14.556c.694 0 1.288-.517 1.386-1.204l1.267-8.745a.782.782 0 00-.15-.584.774.774 0 00-.517-.308l-.068.001-.145.001h-.1l-.755.002h-2.278l-2.027-.002h-.368l-1.147-.001h-.395l-1.214-.001h-.414l-.837-.002h-.422l-1.277-.001h-.427l-.854-.001h-.426l-.847-.002h-1.661l-.405-.001-1.568-.001h-.376zm13.883 2.928a1 1 0 010 2h-3.696a1 1 0 110-2h3.696z"/></svg>14247 24.8129 9.14257L25.3904 9.14374C25.4346 9.14384 25.4778 9.14394 25.52 9.14403L25.8754 9.14492C25.9122 9.14502 25.9481 9.14512 25.9832 9.14522L26.3642 9.14642C26.3928 9.14652 26.4206 9.14663 26.4476 9.14673L26.6713 9.14764C26.694 9.14774 26.7161 9.14784 26.7375 9.14794L26.9638 9.14918C26.9802 9.14928 26.9961 9.14938 27.0114 9.14949L27.1347 9.15042C27.1469 9.15053 27.1586 9.15063 27.1698 9.15074L27.2586 9.15168C27.2672 9.15179 27.2754 9.1519 27.2831 9.152L27.3436 9.15296C27.3493 9.15307 27.3546 9.15317 27.3597 9.15328L27.3979 9.15425C27.4014 9.15435 27.4047 9.15446 27.4077 9.15457L27.4354 9.15588L27.4401 9.15621C27.4531 9.15742 27.4569 9.15786 27.4569 9.15786C28.1996 9.26586 28.8529 9.65386 29.2983 10.2512C29.7436 10.8472 29.9303 11.5819 29.8236 12.3179L28.5583 21.0619C28.3196 22.7259 26.8743 23.9805 25.1943 23.9805H10.6329C8.87693 23.9805 7.39027 22.6099 7.2476 20.8565L6.02627 6.33119L4.01693 5.98453C3.4716 5.88853 3.1076 5.37253 3.20093 4.82719C3.29693 4.28186 3.8236 3.92719 4.35693 4.01253ZM9.16658 11.1303L8.43693 11.1299L9.24093 20.6925C9.2996 21.4285 9.90093 21.9805 10.6356 21.9805H25.1916C25.8863 21.9805 26.4796 21.4632 26.5783 20.7765L27.8449 12.0312C27.8743 11.8232 27.8223 11.6152 27.6956 11.4472C27.5703 11.2779 27.3863 11.1685 27.1783 11.1392C27.1687 11.1396 27.1456 11.1399 27.1098 11.1402L26.9648 11.141C26.9345 11.1412 26.9011 11.1413 26.8648 11.1414L26.1095 11.1425C26.0457 11.1426 25.9795 11.1426 25.9108 11.1426L24.1348 11.1426C24.0357 11.1425 23.9347 11.1425 23.832 11.1425L21.8052 11.1412C21.6837 11.1411 21.561 11.141 21.437 11.1409L20.2901 11.14C20.1595 11.1399 20.0279 11.1398 19.8954 11.1397L18.6806 11.1386C18.5434 11.1385 18.4055 11.1384 18.2671 11.1383L17.4303 11.1375C17.2899 11.1374 17.1491 11.1372 17.008 11.1371L15.7311 11.1359C15.5887 11.1358 15.4462 11.1356 15.3037 11.1355L14.4496 11.1347C14.3074 11.1346 14.1654 11.1344 14.0237 11.1343L13.1767 11.1335C13.0363 11.1334 12.8962 11.1333 12.7566 11.1332L11.516 11.1321C11.3801 11.132 11.2449 11.1319 11.1106 11.1318L9.54265 11.1306C9.41613 11.1305 9.29074 11.1304 9.16658 11.1303ZM23.0501 14.0583C23.6021 14.0583 24.0501 14.5063 24.0501 15.0583C24.0501 15.6103 23.6021 16.0583 23.0501 16.0583H19.3541C18.8008 16.0583 18.3541 15.6103 18.3541 15.0583C18.3541 14.5063 18.8008 14.0583 19.3541 14.0583H23.0501Z"/>
</svg>
